icons/contact-phone-home.svg

<svg
  xmlns="http://www.w3.org/2000/svg"
  viewBox="0 0 500 500"
  width="500"
  height="500"
  fill="#ffffff"
>
  <path d="M166.4 202v-83.9c41.4-11.8 98.4-17 167.4 3.8v77.5a14.4 14.4 0 0 0 14.4 14.3h116.5a14.4 14.4 0 0 0 14.3-14.3V82.9a14.3 14.3 0 0 0-10.5-13.8C234.2-62.1 67.3 44.3 30.2 72a14.4 14.4 0 0 0-6.3 4.9L22.8 78l.3.4a13.9 13.9 0 0 0-1.8 6.9v116.6a14.3 14.3 0 0 0 14.3 14.2H152a14.2 14.2 0 0 0 14.4-14.1z" />
  <path d="M425.1 235.1h-77a36 36 0 0 1-35.8-35.6v-12.3h-27.1v48.5H215v-48.5h-27.2v15a35.5 35.5 0 0 1-35.7 35.3H74.4l-35.5 165v79.1A13.4 13.4 0 0 0 52.3 495h395.6a13.4 13.4 0 0 0 13.4-13.4v-79.1zM193.2 404.3a9.9 9.9 0 0 1-9.9 9.9h-19.4a9.9 9.9 0 0 1-9.9-9.9v-19.4a9.9 9.9 0 0 1 9.9-9.9h19.4a9.9 9.9 0 0 1 9.9 9.9zm0-51.1a9.9 9.9 0 0 1-9.9 9.9h-19.4a9.9 9.9 0 0 1-9.9-9.9v-19.4a9.9 9.9 0 0 1 9.9-9.9h19.4a9.9 9.9 0 0 1 9.9 9.9zm0-51a9.9 9.9 0 0 1-9.9 9.9h-19.4a9.9 9.9 0 0 1-9.9-9.9v-19.5a9.9 9.9 0 0 1 9.9-9.9h19.4a9.9 9.9 0 0 1 9.9 9.9zM273 404.3a9.9 9.9 0 0 1-9.9 9.9h-19.4a9.9 9.9 0 0 1-9.9-9.9v-19.4a9.9 9.9 0 0 1 9.9-9.9h19.4a9.9 9.9 0 0 1 9.9 9.9zm0-51.1a9.9 9.9 0 0 1-9.9 9.9h-19.4a9.9 9.9 0 0 1-9.9-9.9v-19.4a9.9 9.9 0 0 1 9.9-9.9h19.4a9.9 9.9 0 0 1 9.9 9.9zm0-51a9.9 9.9 0 0 1-9.9 9.9h-19.4a9.9 9.9 0 0 1-9.9-9.9v-19.5a9.9 9.9 0 0 1 9.9-9.9h19.4a9.9 9.9 0 0 1 9.9 9.9zm79.8 102.1a9.9 9.9 0 0 1-9.9 9.9h-19.4a9.9 9.9 0 0 1-10-9.9v-19.4a9.9 9.9 0 0 1 10-9.9h19.4a9.9 9.9 0 0 1 9.9 9.9zm0-51.1a9.9 9.9 0 0 1-9.9 9.9h-19.4a9.9 9.9 0 0 1-10-9.9v-19.4a9.9 9.9 0 0 1 10-9.9h19.4a9.9 9.9 0 0 1 9.9 9.9zm0-51a10 10 0 0 1-9.9 9.9h-19.4a10 10 0 0 1-10-9.9v-19.5a10 10 0 0 1 10-9.9h19.4a10 10 0 0 1 9.9 9.9z" />
</svg>

<svg xmlns="http://www.w3.org/2000/svg" viewBox="0 0 500 500">
  <g id="contact-phone-home">
    <path id="phone" d="M166.4,202V118.1c41.4-11.8,98.4-17,167.4,3.8v77.5a14.4,14.4,0,0,0,14.4,14.3H464.7A14.4,14.4,0,0,0,479,199.4V82.9a14.3,14.3,0,0,0-10.5-13.8C234.2-62.1,67.3,44.3,30.2,72a14.4,14.4,0,0,0-6.3,4.9L22.8,78l.3.4a13.9,13.9,0,0,0-1.8,6.9V201.9a14.3,14.3,0,0,0,14.3,14.2H152A14.2,14.2,0,0,0,166.4,202Z"/>
    <path id="keypad" d="M425.1,235.1h-77a36,36,0,0,1-35.8-35.6V187.2H285.2v48.5H215V187.2H187.8v15a35.5,35.5,0,0,1-35.7,35.3H74.4l-35.5,165v79.1A13.4,13.4,0,0,0,52.3,495H447.9a13.4,13.4,0,0,0,13.4-13.4V402.5ZM193.2,404.3a9.9,9.9,0,0,1-9.9,9.9H163.9a9.9,9.9,0,0,1-9.9-9.9V384.9a9.9,9.9,0,0,1,9.9-9.9h19.4a9.9,9.9,0,0,1,9.9,9.9Zm0-51.1a9.9,9.9,0,0,1-9.9,9.9H163.9a9.9,9.9,0,0,1-9.9-9.9V333.8a9.9,9.9,0,0,1,9.9-9.9h19.4a9.9,9.9,0,0,1,9.9,9.9Zm0-51a9.9,9.9,0,0,1-9.9,9.9H163.9a9.9,9.9,0,0,1-9.9-9.9V282.7a9.9,9.9,0,0,1,9.9-9.9h19.4a9.9,9.9,0,0,1,9.9,9.9ZM273,404.3a9.9,9.9,0,0,1-9.9,9.9H243.7a9.9,9.9,0,0,1-9.9-9.9V384.9a9.9,9.9,0,0,1,9.9-9.9h19.4a9.9,9.9,0,0,1,9.9,9.9Zm0-51.1a9.9,9.9,0,0,1-9.9,9.9H243.7a9.9,9.9,0,0,1-9.9-9.9V333.8a9.9,9.9,0,0,1,9.9-9.9h19.4a9.9,9.9,0,0,1,9.9,9.9Zm0-51a9.9,9.9,0,0,1-9.9,9.9H243.7a9.9,9.9,0,0,1-9.9-9.9V282.7a9.9,9.9,0,0,1,9.9-9.9h19.4a9.9,9.9,0,0,1,9.9,9.9Zm79.8,102.1a9.9,9.9,0,0,1-9.9,9.9H323.5a9.9,9.9,0,0,1-10-9.9V384.9a9.9,9.9,0,0,1,10-9.9h19.4a9.9,9.9,0,0,1,9.9,9.9Zm0-51.1a9.9,9.9,0,0,1-9.9,9.9H323.5a9.9,9.9,0,0,1-10-9.9V333.8a9.9,9.9,0,0,1,10-9.9h19.4a9.9,9.9,0,0,1,9.9,9.9Zm0-51a10,10,0,0,1-9.9,9.9H323.5a10,10,0,0,1-10-9.9V282.7a10,10,0,0,1,10-9.9h19.4a10,10,0,0,1,9.9,9.9Z"/>
  </g>
</svg>
